X: 389
T: Bir Makam-ı Dilnişîn`e
C: Ahmet Avni Konuk
O: Turkey
F: http://compmusic.upf.edu/node/140
N: dilnisin--kupe--devrirevanihindi--bir--ahmet_avni_konuk
N: makam= dilnisin
N: form= kupe
N: usul= devrirevanihindi = 14/8
M: 14/8
L: 1/16
K: C _1/4B ^f  
Q: 1/4=102
%%MIDI tuningsystem comma53
d2d2 e2e8g2 ^3/4f2g2 bagf e4  | e4 ^3/4f2g3fa2 gfe4f2 agfe d4  | 
w:  Bir  *  ma kam_ ı   |  Dil ni şî *  *  *  *  ne   | 
dc_2/4B2 c2d6 z2e2 d2e2 c4 =f4  | \
w:  gel *  *  di  nev bet   | 
e4 =f2e4d4c2 _2/4B2AG c6z2  | 
w:  mut *  *  rı bâ    | 
c4 c2dc c_2/4Bc4B2 A2B2 dcBA G2z2  | \
w:  Nağ me  i  *  *  *  mev mev  | 
_2/4BcB2 A2Bc BABc Bcd6 e2=fe d2z2  | 
w:  zû *  *  nu  dil *  *  *  *  *  *  *  ler  | 
e2d2 =f2e2 d2c2 _2/4B2cB A2A2 A2BA G4  | \
w:  den  *  gâ mı  *  *  *  it  | 
A_2/4BAB AGAc BAAG G^3/4FG2 F2AG G6z2  | 
w:  sin  *  *  *  *  *  *  *  *  *  he *  *  *  bâ    | 
|


